X:1
T:Title
%%score { ( 1 3 ) | ( 2 4 ) }
L:1/8
M:6/8
K:G
V:1 treble nm="Grand Piano"
V:3 treble 
V:2 bass 
V:4 bass 
V:1
 z3 z2[Q:1/4=100] B | .A3 .F3 | z ^CC z B,B | .A3 .F3 | c6 | .B3 .^G3 | E3 .D3 | .F3 .E3 | %8
 D6[K:bass] | z[K:treble] D=F z DB | B3 .A3 | z CE z CA | A3 .G3 | .G3 .F3 | d3 .B3 | .A3 .A3 | %16
[M:5/8] A-A- A3 |[M:1/8] D |[M:3/4] D2 A ^G2 A | [B,E]3 [B,D]2 [B,D] | D2 A ^G2 [EA] | [^DB]4 z E | %22
 E2 B _B2 =B |[M:5/8] [C=F]3 [CE]2 |[M:1/8] [CE] |[M:3/4] [^CA]2 [CB] [CA]2 [CE] | [CA]4 z [Fd] | %27
 [Gd]2 [G^d] [^Ge]2 [EGB] |[M:7/8] [EAd]3 [EAc]3 [EAc] |[M:3/4] [DGB]2 [EGc] [CFA]2 [DFB] | %30
[M:5/8] [B,DG]-[B,DG]- [B,DG]3 |] %31
V:2
 z6 | z B,[B,D] z B,[B,D] | z _B,B, [G,,G,]2 [=B,D] | z B,[B,D] z B,[B,D] | %4
 D,,[D,F,C][D,G,C] .[D,A,C]3 | z[K:treble] C[CF][K:bass] z C[CF] | z A,A, z A,[A,C] | %7
 z A,[CF] z A,[A,C] | z G,G, z .G,2 | z ^G,[G,D] z G,[DE] | z CC z .C2 | z [F,A,][F,A,C] z F,[CD] | %12
 z B,B, z .B,2 | z _B,[B,^C] z B,C | z[K:treble] [DG][DG][K:bass] z D[DG] | z ^C[CG] z CC | %16
[M:5/8] [G,E]3 F,2 |[M:1/8] D, |[M:3/4] [D,F,C]2 [D,F,C] [D,=F,B,]2 [D,^F,C] | %19
 [G,,G,]3 [G,,G,]2 [G,,G,] | [D,F,C]2 [D,F,C] [D,F,C]2 [C,E,] | [B,,F,]4 z E, | %22
 [E,^G,D]2 [E,G,D] [E,=G,^C]2 [E,^G,D] |[M:5/8] [A,,A,]3 [A,,A,]2 |[M:1/8] [A,,A,] | %25
[M:3/4] [A,,G,]2 [A,,G,] [A,,G,]2 [A,,G,] | [D,F,]4 z [D,C] | [G,B,]2 [G,B,] [E,B,]2 E, | %28
[M:7/8] A,3 A,3 C, |[M:3/4] D,2 D, D,2 D, |[M:5/8] G,,-G,,- G,,3 |] %31
V:3
 x6 | z DG z DG | E3 .D3 | z DG z DG | z DE F2 c | z FA z FA | z CC z CE | z CA z CF | %8
 z[K:bass] B,B, z B,^D | .E3[K:treble] .E3 | z EE z E^D | .D3 .D3 | z DD z DG | z ^CG z CG | %14
 z BB z GB | z GB z GE |[M:5/8] z z2 D2 |[M:1/8] x |[M:3/4] x6 | x6 | x6 | x6 | x6 |[M:5/8] x5 | %24
[M:1/8] x |[M:3/4] x6 | x6 | x6 |[M:7/8] x7 |[M:3/4] x6 |[M:5/8] x5 |] %31
V:4
 x6 | .[G,,G,]3 .[D,,D,]3 | .[G,,G,]3 z3 | .[G,,G,]3 .[G,,G,]3 | x6 | %5
 .[D,,D,]3[K:treble][K:bass] .[D,,D,]3 | .[D,,D,]3 .[D,,D,]3 | .[D,,D,]3 .[D,,D,]3 | %8
 [G,,D,]3 .G,,3 | .[E,,E,]3 .[E,,E,]3 | .[A,,A,]3 .[A,,A,]3 | .[D,,D,]3 .[D,,D,]3 | %12
 .[G,,G,]3 .[G,,G,]3 | [^D,,^D,]3 [D,,D,]3 | [D,,D,]3[K:treble][K:bass] [D,,D,]3 | %15
 [A,,A,]3 [A,,A,]3 |[M:5/8] [D,C]-[D,C]- [D,C]3 |[M:1/8] x |[M:3/4] x6 | x6 | x6 | x6 | x6 | %23
[M:5/8] x5 |[M:1/8] x |[M:3/4] x6 | x6 | x6 |[M:7/8] x7 |[M:3/4] x6 |[M:5/8] x5 |] %31

